X:0804
T:If a Body meet a Body.
S:Aird v5 p2
M:C
L:1/8
Q:1/4=80 "Slow"
I: :: :|
Z:Jack Campin * www.campin.me.uk * 2009
K:G
D<D DB  A>G AB|D<D E>D          G4|  D<D  d>B A>G AB|D<D E>D G4:|
d>B G>B A>G AB|dB (G/A/)(B/c/) He4|(3d<dB c>A BG  AB|D<D E>D G4:|

